svg/24/logo-x.svg

<svg width="24" height="24" viewBox="0 0 24 24" fill="currentColor" xmlns="http://www.w3.org/2000/svg"><path d="M17.0899 4H19.8042L13.8743 10.7774L20.8503 20H15.3882L11.11 14.4066L6.21485 20H3.49895L9.84152 12.7508L3.14941 4H8.75023L12.6173 9.11262L17.0899 4ZM16.1373 18.3754H17.6413L7.933 5.53928H6.31906L16.1373 18.3754Z"/></svg>

<svg xmlns="http://www.w3.org/2000/svg" width="24" height="24" fill="currentColor" viewBox="0 0 24 24">
  <path d="M17.09 4h2.714l-5.93 6.777L20.85 20h-5.462l-4.278-5.593L6.215 20H3.499l6.343-7.25L3.149 4H8.75l3.867 5.113L17.09 4Zm-.953 14.375h1.504L7.933 5.54H6.319l9.818 12.836Z"/>
</svg>
